X:98
T:Tampico Road
C:Sarah Gowan
M:6/8
R:Jig
L:1/8
K:Am
|:"Am"AGA efe|"Dm"dcd "Am"ecA|AGA efe|"Dm"dcB "E7"B2 E/2G/2|
"Am"A2Ae2e|"Dm"fed "Am"ecA|"Dm"dcA "G"BAG|"Am"A3-A2:|
|:c/d/|"Am"e2e a3|gae dcA|"Am"ede "C"aga|"D"dcd "E"e2E/2G/2|
"Am"AGAe3|"Dm"deg "Am"eAA|cBA "G"BAG|"Am"A3-A2:|
W:  2001 Sarah Gowan. All rights reserved. Used by permission.
W:Written at my family's farm in the Northeast Kingdom in Vermont
